!!!SOCIAL_FUNCTION:	songs of the bear dance
!!!PDT:	1922
!!!OTL: No_11_Bear_Dance_Song_(g).krn
!!!REG: Southwest
!!!LANG: Non-Tone
!!!LING_GROUP: Uto-Aztecan
**kern
*staff1
=1-
*clefF4
*k[f#c#g#d#a#]
*M3/4
8d#\L
8c#\J
8c#\L
8B\J
8.B\L
16B\Jk
=2||
*M2/4
[2d#\
=3
2d#\]
=4
2c#\
=5
4.c#\
8G#\
=6
2d#\
=7
8d#\L
8B\J
4B\
=8
8G#\L
8G#\J
4F#\
=9
8G#\L
8F#\J
8F#\L
8D#\J
=10
[2D#\
=11
2D#\]
=12
12C#/L
12C#/
12C#/J
4C#/
=13
12C#/L
12C#/
12C#/J
4C#/
=14
12C#/L
12C#/
12C#/J
4C#/
=15
12C#/L
12C#/
12C#/J
4C#/
=16||
4d#\
4d#\
=17
8d#\L
8B\J
4B\
=18
8G#\L
8F#\J
4F#\
=19||
*M3/4
8G#\L
8F#\J
8F#\L
8D#\J
8.D#;\L
16G#\Jk
=20
4G#\
8D#\
16r
16G#\
8.G#\L
16G#\Jk
=21
2.G#\
=22||
*M2/4
8G#\L
8F#\J
8F#\L
8D#\J
=23||
*M3/4
4D#\
8D#\
8r
8.D#\L
16G#\Jk
=24
4G#\
8D#\
16r
16G#\
8.G#\L
16G#\Jk
=25||
*M2/4
2G#\
=26
4.G#\
8G#\
=27
4.G#\
8G#\
=28||
*M3/4
8.G#\L
16G#\Jk
4.G#\
8G#\
=29||
*M2/4
4.G#\
8G#\
=30
[2G#\
=31
2G#\]
==
*-
